resources/svg/regular/user-x.svg

<svg xmlns="http://www.w3.org/2000/svg" fill="currentColor" stroke="none" viewBox="0 0 24 24"><path fill="none" d="M10,8c0-1.178-0.822-2-2-2S6,6.822,6,8s0.822,2,2,2S10,9.178,10,8z"/><path d="M15.706 15.706L17.999 13.413 20.293 15.707 21.707 14.293 19.414 12 21.707 9.707 20.293 8.293 18 10.586 15.707 8.293 14.293 9.707 16.585 11.999 14.292 14.292zM12 8c0-2.28-1.72-4-4-4S4 5.72 4 8s1.72 4 4 4S12 10.28 12 8zM6 8c0-1.178.822-2 2-2s2 .822 2 2-.822 2-2 2S6 9.178 6 8zM4 18c0-1.654 1.346-3 3-3h2c1.654 0 3 1.346 3 3v1h2v-1c0-2.757-2.243-5-5-5H7c-2.757 0-5 2.243-5 5v1h2V18z"/></svg>

<svg xmlns="http://www.w3.org/2000/svg" fill="currentColor" stroke="none" viewBox="0 0 24 24"><path d="m15.71 15.71 2.29-2.3 2.29 2.3 1.42-1.42-2.3-2.29 2.3-2.29-1.42-1.42-2.29 2.3-2.29-2.3-1.42 1.42L16.58 12l-2.29 2.29zM12 8a3.91 3.91 0 0 0-4-4 3.91 3.91 0 0 0-4 4 3.91 3.91 0 0 0 4 4 3.91 3.91 0 0 0 4-4zM6 8a1.91 1.91 0 0 1 2-2 1.91 1.91 0 0 1 2 2 1.91 1.91 0 0 1-2 2 1.91 1.91 0 0 1-2-2zM4 18a3 3 0 0 1 3-3h2a3 3 0 0 1 3 3v1h2v-1a5 5 0 0 0-5-5H7a5 5 0 0 0-5 5v1h2z"/></svg>
